X:46
M:2/4
L:1/8
K:D
|: a2 fd | B2 gf | edcB | AGFE | D2 FA | d2g2 | fdec | d4 :|

